packages/assets/static/images/icons/bird.svg

<svg width="24" height="24" viewBox="0 0 24 24" xmlns="http://www.w3.org/2000/svg" fill="currentColor" aria-hidden="true"> <path d="M16.8739 7.50049C16.8739 7.79716 16.786 8.08717 16.6211 8.33385C16.4563 8.58052 16.222 8.77278 15.948 8.88631C15.6739 8.99984 15.3723 9.02955 15.0813 8.97167C14.7903 8.91379 14.523 8.77093 14.3133 8.56115C14.1035 8.35137 13.9606 8.0841 13.9028 7.79313C13.8449 7.50216 13.8746 7.20056 13.9881 6.92647C14.1016 6.65238 14.2939 6.41811 14.5406 6.25329C14.7872 6.08847 15.0773 6.00049 15.3739 6.00049C15.7718 6.00049 16.1533 6.15853 16.4346 6.43983C16.7159 6.72114 16.8739 7.10267 16.8739 7.50049ZM23.2489 8.25049C23.2492 8.43591 23.2036 8.61853 23.1163 8.78209C23.029 8.94565 22.9025 9.08508 22.7483 9.18799L20.9989 10.3524V12.0005C20.996 14.6849 19.9283 17.2585 18.0301 19.1567C16.1319 21.0548 13.5583 22.1225 10.8739 22.1255H2.62393C2.27086 22.1251 1.92508 22.025 1.62637 21.8368C1.32767 21.6485 1.08818 21.3798 0.93548 21.0614C0.782775 20.7431 0.723056 20.3881 0.763195 20.0373C0.803333 19.6866 0.941699 19.3542 1.16237 19.0786L1.17643 19.0617L8.99893 9.67362V7.95893C8.99893 4.62049 11.6774 1.89143 14.9699 1.87549H14.9989C16.2508 1.87419 17.4717 2.26489 18.4903 2.99275C19.5089 3.72061 20.274 4.74911 20.6783 5.93393L22.7483 7.31299C22.9025 7.4159 23.029 7.55534 23.1163 7.7189C23.2036 7.88246 23.2492 8.06507 23.2489 8.25049ZM20.0961 8.25049L19.0939 7.58205C18.8619 7.42875 18.695 7.19497 18.6252 6.9258C18.4152 6.12388 17.9455 5.41412 17.2894 4.90746C16.6333 4.40081 15.8279 4.12582 14.9989 4.12549H14.9811C12.9233 4.1358 11.2499 5.85518 11.2499 7.95893V10.0805C11.2498 10.344 11.1572 10.5992 10.9883 10.8014L3.42737 19.8755H5.34737L11.8855 12.0305C11.9786 11.9126 12.0944 11.8145 12.226 11.742C12.3576 11.6696 12.5024 11.6242 12.6519 11.6086C12.8013 11.593 12.9523 11.6076 13.0961 11.6513C13.2398 11.6951 13.3733 11.7672 13.4888 11.8634C13.6042 11.9595 13.6992 12.0779 13.7681 12.2114C13.837 12.3449 13.8785 12.4908 13.8901 12.6406C13.9018 12.7904 13.8832 12.9411 13.8357 13.0836C13.7881 13.2261 13.7125 13.3577 13.6133 13.4705L8.27612 19.8755H10.8739C12.9618 19.8733 14.9636 19.0429 16.4399 17.5665C17.9163 16.0901 18.7467 14.0884 18.7489 12.0005V9.75049C18.7488 9.56499 18.7945 9.38232 18.882 9.21875C18.9695 9.05518 19.0961 8.91579 19.2505 8.81299L20.0961 8.25049Z"/> </svg>

<svg viewBox="0 0 24 24" xmlns="http://www.w3.org/2000/svg" aria-hidden="true" fill="currentColor"><path d="M16.874 7.5a1.5 1.5 0 1 1-2.999 0 1.5 1.5 0 0 1 2.999 0m6.375.75a1.13 1.13 0 0 1-.5.938l-1.75 1.164v1.649a10.136 10.136 0 0 1-10.125 10.125h-8.25a1.875 1.875 0 0 1-1.462-3.047l.014-.017L9 9.674V7.959c0-3.339 2.678-6.068 5.97-6.084H15a5.995 5.995 0 0 1 5.68 4.059l2.07 1.379a1.13 1.13 0 0 1 .5.937m-3.153 0-1.002-.668a1.13 1.13 0 0 1-.469-.656A3.75 3.75 0 0 0 15 4.126h-.018c-2.058.01-3.731 1.73-3.731 3.833v2.122c0 .263-.093.518-.262.72l-7.56 9.074h1.92l6.538-7.844a1.126 1.126 0 0 1 2.004.61 1.12 1.12 0 0 1-.277.83l-5.337 6.404h2.598a7.883 7.883 0 0 0 7.875-7.874V9.75a1.13 1.13 0 0 1 .502-.938z"/></svg>
